assets/img/logo-blue.svg

<?xml version="1.0" encoding="UTF-8" standalone="no"?>
<svg width="175px" height="60px" viewBox="0 0 175 60" version="1.1" xmlns="http://www.w3.org/2000/svg" xmlns:xlink="http://www.w3.org/1999/xlink">
    <!-- Generator: Sketch 39.1 (31720) - http://www.bohemiancoding.com/sketch -->
    <title>AMP-Brand-Blue</title>
    <desc>Created with Sketch.</desc>
    <defs></defs>
    <g id="amp-logo-internal-site" stroke="none" stroke-width="1" fill="none" fill-rule="evenodd">
        <g id="AMP-Brand-Blue" fill="#0379C4">
            <g id="Updated">
                <path d="M92.9377885,34.2654167 L100.009303,34.2654167 L97.6282933,27.2504167 C97.4751683,26.8054167 97.2942788,26.2804167 97.0873077,25.67625 C96.8794952,25.0729167 96.6742067,24.4195833 96.473125,23.71625 C96.2846635,24.43125 96.0886298,25.09375 95.8875481,25.70375 C95.685625,26.3129167 95.4963221,26.8404167 95.3187981,27.2854167 L92.9377885,34.2654167 Z M109.569519,44.05875 L104.91351,44.05875 C104.391875,44.05875 103.962788,43.9379167 103.625409,43.6979167 C103.288029,43.4579167 103.053293,43.1504167 102.923726,42.7754167 L101.395841,38.3095833 L91.5520913,38.3095833 L90.0233654,42.7754167 C89.9055769,43.1029167 89.6742067,43.3995833 89.3309375,43.6629167 C88.9876683,43.9270833 88.5669952,44.05875 88.0689183,44.05875 L83.3784135,44.05875 L93.3996875,18.4420833 L99.5474038,18.4420833 L109.569519,44.05875 Z" id="Fill-1"></path>
                <path d="M130.561779,33.7364167 C130.78137,34.21725 130.990865,34.7105833 131.192788,35.21475 C131.39387,34.6980833 131.606731,34.19725 131.832212,33.7105833 C132.056851,33.2230833 132.288221,32.7505833 132.525481,32.2939167 L139.170433,19.33975 C139.289062,19.1164167 139.411058,18.9430833 139.534736,18.8205833 C139.659255,18.69725 139.798918,18.6064167 139.952043,18.54725 C140.10601,18.4880833 140.28101,18.4589167 140.476202,18.4589167 L141.161058,18.4589167 L145.744712,18.4589167 L145.744712,44.0589167 L140.45012,44.0589167 L140.45012,29.32475 C140.45012,28.6105833 140.485457,27.8364167 140.55613,27.0039167 L133.698317,40.1730833 C133.484615,40.5839167 133.197716,40.8939167 132.835937,41.10475 C132.474159,41.3164167 132.06274,41.4214167 131.600841,41.4214167 L130.783894,41.4214167 C130.321995,41.4214167 129.910577,41.3164167 129.548798,41.10475 C129.187019,40.8939167 128.90012,40.5839167 128.686418,40.1730833 L121.793269,26.9864167 C121.840385,27.39725 121.875721,27.8039167 121.899279,28.2080833 C121.922837,28.6130833 121.935457,28.9855833 121.935457,29.32475 L121.935457,44.0589167 L116.640024,44.0589167 L116.640024,18.4589167 L121.224519,18.4589167 L121.908534,18.4589167 C122.103726,18.4589167 122.278726,18.4880833 122.432692,18.54725 C122.586659,18.6064167 122.726322,18.69725 122.85,18.8205833 C122.974519,18.9430833 123.095673,19.1164167 123.215144,19.33975 L129.877764,32.3455833 C130.115024,32.79225 130.342187,33.2555833 130.561779,33.7364167" id="Fill-3"></path>
                <path d="M160.989904,31.0125833 L164.117187,31.0125833 C165.680409,31.0125833 166.805288,30.64425 167.492668,29.9050833 C168.180048,29.16675 168.523317,28.1350833 168.523317,26.8109167 C168.523317,26.2250833 168.434976,25.6909167 168.257452,25.2109167 C168.079087,24.7300833 167.809014,24.31675 167.448918,23.9709167 C167.087139,23.6259167 166.63113,23.3584167 166.080048,23.1709167 C165.529808,22.9834167 164.874399,22.8900833 164.117187,22.8900833 L160.989904,22.8900833 L160.989904,31.0125833 Z M160.989904,35.4959167 L160.989904,44.0584167 L154.983534,44.0584167 L154.983534,18.44175 L164.117187,18.44175 C165.941226,18.44175 167.507812,18.6559167 168.816947,19.0834167 C170.12524,19.5109167 171.203846,20.1000833 172.05024,20.8509167 C172.896635,21.6009167 173.522596,22.4859167 173.92476,23.5050833 C174.327764,24.5250833 174.528846,25.62675 174.528846,26.8109167 C174.528846,28.0884167 174.321875,29.2600833 173.907933,30.3275833 C173.492308,31.3934167 172.858774,32.3084167 172.00649,33.0700833 C171.153365,33.83175 170.072236,34.42675 168.763101,34.85425 C167.454808,35.2825833 165.905889,35.4959167 164.117187,35.4959167 L160.989904,35.4959167 Z" id="Fill-5"></path>
                <path d="M40.6737019,27.2526667 L27.9676923,48.196 L25.6657692,48.196 L27.9416106,34.5493333 L20.8936538,34.5593333 C20.8936538,34.5593333 20.8271875,34.561 20.7952163,34.561 C20.1608413,34.561 19.6459375,34.051 19.6459375,33.4226667 C19.6459375,33.1526667 19.900024,32.696 19.900024,32.696 L32.5639663,11.7768333 L34.9045913,11.786 L32.5715385,25.4543333 L39.6556731,25.446 C39.6556731,25.446 39.7322356,25.4443333 39.7684135,25.4443333 C40.4027885,25.4443333 40.916851,25.9535 40.916851,26.5826667 C40.916851,26.8376667 40.8167308,27.0618333 40.6728606,27.2518333 L40.6737019,27.2526667 Z M30.288125,0.000166666667 C13.5604808,0.000166666667 -0.000336538462,13.4318333 -0.000336538462,30.0001667 C-0.000336538462,46.5685 13.5604808,60.0001667 30.288125,60.0001667 C47.0166106,60.0001667 60.5765865,46.5685 60.5765865,30.0001667 C60.5765865,13.4318333 47.0166106,0.000166666667 30.288125,0.000166666667 L30.288125,0.000166666667 Z" id="Fill-7"></path>
            </g>
        </g>
    </g>
</svg>

<svg width="175" height="60" viewBox="0 0 175 60" xmlns="http://www.w3.org/2000/svg"><title>AMP-Brand-Blue</title><g fill="#0379C4" fill-rule="evenodd"><path d="M92.938 34.265h7.07l-2.38-7.015c-.153-.445-.334-.97-.54-1.574-.21-.603-.414-1.256-.615-1.96-.188.715-.384 1.378-.585 1.988-.202.61-.392 1.136-.57 1.58l-2.38 6.98zm16.632 9.794h-4.656c-.522 0-.95-.122-1.29-.362-.336-.24-.57-.548-.7-.923l-1.528-4.465h-9.844l-1.53 4.465c-.116.328-.348.625-.69.888-.344.264-.765.396-1.263.396h-4.692L93.4 18.44h6.147L109.57 44.06zM130.562 33.736c.22.48.43.975.63 1.48.202-.518.415-1.02.64-1.505.225-.487.456-.96.693-1.416l6.645-12.954c.12-.224.24-.397.365-.52.124-.123.264-.214.417-.273.154-.06.33-.088.524-.088h5.27v25.6h-5.295V29.324c0-.714.035-1.49.106-2.32l-6.858 13.168c-.213.41-.5.72-.862.932-.362.21-.773.316-1.235.316h-.816c-.462 0-.873-.104-1.235-.315-.363-.21-.65-.52-.864-.932l-6.893-13.187c.047.41.083.818.106 1.222.023.405.035.778.035 1.117V44.06h-5.295v-25.6h5.269c.194 0 .37.028.523.087.154.06.293.15.417.274.125.123.246.296.365.52l6.663 13.006c.237.446.464.91.684 1.39M160.99 31.013h3.127c1.563 0 2.688-.37 3.376-1.108.687-.738 1.03-1.77 1.03-3.094 0-.585-.088-1.12-.266-1.6-.178-.48-.448-.893-.808-1.24-.363-.344-.82-.612-1.37-.8-.55-.187-1.206-.28-1.963-.28h-3.127v8.123zm0 4.483v8.562h-6.006V18.442h9.133c1.824 0 3.39.214 4.7.64 1.308.43 2.387 1.018 3.233 1.77.847.75 1.473 1.634 1.875 2.653.403 1.02.604 2.122.604 3.306 0 1.278-.208 2.45-.622 3.518-.416 1.065-1.05 1.98-1.902 2.742-.853.762-1.934 1.357-3.243 1.784-1.308.43-2.857.642-4.646.642h-3.127zM40.674 27.253L27.968 48.196h-2.302l2.276-13.647-7.048.01h-.1c-.633 0-1.148-.51-1.148-1.137 0-.27.254-.727.254-.727l12.664-20.92 2.34.01-2.332 13.668 7.084-.008.112-.002c.635 0 1.15.51 1.15 1.14 0 .254-.1.478-.245.668zM30.288 0C13.56 0 0 13.432 0 30 0 46.57 13.56 60 30.288 60c16.73 0 30.29-13.431 30.29-30 0-16.568-13.56-30-30.29-30z"/></g></svg>
